assets/icons/Github.svg

<svg xmlns="http://www.w3.org/2000/svg" width="48" height="48" fill="none" xmlns:v="https://vecta.io/nano"><path d="M46 18v12h-2v4h-2v4h-2v2h-2v2h-2v2h-4v2h-2V36h-2v-2h2v-2h4v-2h2v-2h2V18h-2v-6h-4v2h-2v2h-2v-2h-8v2h-2v-2h-2v-2h-4v6h-2v10h2v2h2v2h4v4h-4v-2h-2v-2H8v2h2v4h2v2h6v6h-2v-2h-4v-2h-2v-2H8v-2H6v-4H4v-4H2V18h2v-4h2v-4h2V8h2V6h4V4h4V2h12v2h4v2h4v2h2v2h2v4h2v4h2z" fill="#000"/></svg>

<svg width="48" height="48" viewBox="0 0 48 48" fill="none" xmlns="http://www.w3.org/2000/svg">
<path d="M46 18V30H44V34H42V38H40V40H38V42H36V44H32V46H30V36H28V34H30V32H34V30H36V28H38V18H36V12H32V14H30V16H28V14H20V16H18V14H16V12H12V18H10V28H12V30H14V32H18V36H14V34H12V32H8V34H10V38H12V40H18V46H16V44H12V42H10V40H8V38H6V34H4V30H2V18H4V14H6V10H8V8H10V6H14V4H18V2H30V4H34V6H38V8H40V10H42V14H44V18H46Z" fill="black"/>
</svg>
